X: 16
T: Reketur
B:[[Notböcker/Melodier til gamle danske Almuedanse for Violin solo]]
O:Danmark
Z:Søren Bak Vestergaard
M: 2/4
L: 1/8
K: D
A(d/d/) dd|cd e2|gf ec|(.d.f) a2|A(d/d/) dd\
|cd e2|gf ec|d2 d2:| |:ag fd|(gf) e2|\
gf ec|(df) a2|ag fd|(gf) e2|gf ec|d2 d2:|

